libs/ui/packages/crypto-icons/src/svg/ION.svg

<svg width="24" height="24" viewBox="0 0 24 24" fill="none">
<path d="M6.01951 14.2568C5.73406 14.29 5.4448 14.2624 5.1708 14.1758C4.89679 14.0892 4.64425 13.9454 4.42982 13.7541C4.21539 13.5628 4.04394 13.3282 3.92676 13.0658C3.80959 12.8034 3.74934 12.5191 3.75001 12.2318C3.74879 11.6954 3.95947 11.1803 4.33619 10.7985C4.71291 10.4167 5.22518 10.1992 5.76151 10.1932C6.48151 6.88575 9.41401 4.41 12.921 4.41C13.5758 4.41 14.211 4.49625 14.8148 4.6575C14.9994 4.37847 15.2503 4.14955 15.545 3.99118C15.8398 3.83282 16.1692 3.74996 16.5038 3.75C17.0431 3.75139 17.5598 3.96692 17.9402 4.34919C18.3207 4.73146 18.5337 5.24918 18.5325 5.7885C18.5325 6.14025 18.444 6.471 18.288 6.759C19.5522 8.1225 20.2532 9.91412 20.25 11.7735C20.2517 12.7474 20.0601 13.712 19.6862 14.6112C19.3123 15.5105 18.7637 16.3266 18.072 17.0123C18.3165 17.3483 18.4605 17.763 18.4605 18.2115C18.4611 18.4786 18.4091 18.7432 18.3074 18.9902C18.2057 19.2372 18.0564 19.4618 17.8679 19.6511C17.6795 19.8404 17.4556 19.9907 17.209 20.0935C16.9625 20.1962 16.6981 20.2494 16.431 20.25C16.0226 20.2495 15.6238 20.1259 15.2868 19.8952C14.9497 19.6645 14.6901 19.3375 14.5418 18.957C14.0101 19.0771 13.4668 19.1375 12.9218 19.137C9.74101 19.137 7.03351 17.1015 6.01951 14.2568ZM6.38701 14.178C7.36201 16.854 9.91951 18.7642 12.921 18.7642C13.4423 18.7642 13.95 18.7065 14.4383 18.5978C14.3806 18.3034 14.3888 17.9999 14.4623 17.7091C14.5357 17.4183 14.6725 17.1473 14.863 16.9156C15.0534 16.6838 15.2927 16.4971 15.5638 16.3687C15.8349 16.2403 16.1311 16.1735 16.431 16.173C16.971 16.173 17.463 16.3853 17.826 16.731C18.478 16.0808 18.9951 15.308 19.3474 14.4572C19.6996 13.6064 19.8802 12.6943 19.8788 11.7735C19.8788 9.966 19.1963 8.319 18.075 7.0785C17.703 7.536 17.1375 7.82775 16.5038 7.82775C16.2366 7.82716 15.9721 7.77394 15.7255 7.67113C15.4789 7.56832 15.255 7.41793 15.0666 7.22856C14.8781 7.03919 14.7288 6.81454 14.6271 6.56745C14.5255 6.32036 14.4736 6.05567 14.4743 5.7885C14.4743 5.508 14.5313 5.24025 14.6333 4.9965C14.0736 4.85455 13.4984 4.78299 12.921 4.7835C9.60901 4.7835 6.83701 7.10925 6.13576 10.2248C6.60563 10.3101 7.03058 10.5578 7.3363 10.9247C7.64202 11.2915 7.80908 11.7542 7.80826 12.2318C7.80894 12.6652 7.67144 13.0876 7.41573 13.4376C7.16002 13.7875 6.79941 14.0469 6.38626 14.178H6.38701ZM12.921 13.815C12.6536 13.8143 12.389 13.761 12.1422 13.658C11.8954 13.555 11.6713 13.4045 11.4827 13.2149C11.2941 13.0253 11.1447 12.8005 11.043 12.5531C10.9413 12.3058 10.8893 12.0409 10.89 11.7735C10.89 10.6462 11.799 9.73275 12.921 9.73275C14.043 9.73275 14.9528 10.6462 14.9528 11.7735C14.9534 12.041 14.9014 12.306 14.7997 12.5533C14.698 12.8007 14.5485 13.0256 14.3598 13.2152C14.1711 13.4047 13.9469 13.5553 13.7001 13.6582C13.4532 13.7611 13.1885 13.8144 12.921 13.815Z" fill="#57BEEA"/>
</svg>

<svg width="24" height="24" viewBox="0 0 24 24" fill="none"><path fill="#57beea" d="M6.02 14.257a2.036 2.036 0 0 1-2.27-2.025 2.034 2.034 0 0 1 2.012-2.039c.72-3.307 3.652-5.783 7.159-5.783.655 0 1.29.086 1.894.247a2.025 2.025 0 0 1 3.125-.308c.38.382.594.9.592 1.44 0 .351-.088.682-.244.97a7.36 7.36 0 0 1 1.962 5.015 7.36 7.36 0 0 1-2.178 5.238c.245.336.389.751.389 1.2a2.033 2.033 0 0 1-2.03 2.038 2.03 2.03 0 0 1-1.89-1.293 7.3 7.3 0 0 1-1.62.18c-3.18 0-5.887-2.035-6.901-4.88m.367-.079c.975 2.676 3.533 4.586 6.534 4.586q.783-.002 1.517-.166a2.032 2.032 0 0 1 3.388-1.867 7 7 0 0 0 2.053-4.958 6.98 6.98 0 0 0-1.804-4.694 2.02 2.02 0 0 1-3.008.15 2.04 2.04 0 0 1-.593-1.44c0-.281.057-.549.16-.792a7 7 0 0 0-1.713-.213c-3.312 0-6.084 2.325-6.785 5.44a2.036 2.036 0 0 1 1.672 2.008 2.04 2.04 0 0 1-1.422 1.946zm6.534-.363a2.036 2.036 0 0 1-2.031-2.041c0-1.128.909-2.041 2.031-2.041s2.032.913 2.032 2.04a2.04 2.04 0 0 1-2.032 2.042"/></svg>
